F[BALLADE
CUT[Graf Friedrich
    Graf Friedrich wollt ausreiten]
CNR[mit seinen Edelleuten.]
REG[Suedosteuropa, Rumaenien, Sathmar]
SRC[2, S. 218
    ????]
KEY[Q0048L 16  E 4/4]
MEL[1_3_  5_6_5_4_3_2_3_5_  4__3__2__
    1_3_  5_6_5_4_3_2_3_5_  4__3__2__
    -5__  1__1_3_2_.22__  3_2_3_5_4__
    6__  5_4_3_5_4_3_2_4_  3__2__1__
    -5__  1__1_3_2__2__  3_2_3_5_4__
    6_6_  5_4_3_5_4_3_2_4_  3__2__1__ //] >>
FCT[Ballade, Hochzeit, Mord / Unfall, Tod]
